public/icon/palette.svg

<?xml version="1.0" encoding="UTF-8"?>
<svg width="150px" height="150px" viewBox="0 0 150 150" version="1.1" xmlns="http://www.w3.org/2000/svg" xmlns:xlink="http://www.w3.org/1999/xlink">
    <title>palette</title>
    <g id="页面-1" stroke="none" stroke-width="1" fill="none" fill-rule="evenodd">
        <g id="palette" fill="#000000" fill-rule="nonzero">
            <path d="M74.6069488,0.070923913 C33.4454581,0.070923913 0.0727872671,33.4380047 0.0727872671,74.6050854 C0.0727872671,115.772166 33.4454581,149.144838 74.6069488,149.144838 C84.3910753,149.146727 94.0793503,147.217304 103.116266,143.467197 C106.9494,141.876655 109.736336,138.47861 110.545979,134.408324 C111.355621,130.338038 110.081227,126.132132 107.148564,123.195769 L98.4038432,114.451048 C94.8534858,110.897698 93.7919165,105.556168 95.7137608,100.915279 C97.635605,96.2743899 102.162751,93.2472095 107.185831,93.2442158 L136.719992,93.2367624 C140.0146,93.2372567 143.174439,91.9288251 145.504254,89.59936 C147.834068,87.269895 149.142974,84.1102526 149.142974,80.8156444 L149.142974,74.6050854 C149.14111,33.4361413 115.77403,0.070923913 74.6069488,0.070923913 Z M136.718129,80.8156444 L107.183967,80.8212345 C93.4808618,80.8212345 82.339868,91.9622283 82.339868,105.665334 C82.339868,112.304464 84.9243401,118.537384 89.6181289,123.233036 L98.3647127,131.977756 C90.8376247,135.118707 82.7612216,136.731961 74.6050854,136.72375 C40.3585016,136.72375 12.4939053,108.857259 12.4939053,74.6050854 C12.4939053,40.3529115 40.3603649,12.4920419 74.6069488,12.4920419 C108.853533,12.4920419 136.718129,40.3510481 136.718129,74.603222 L136.718129,80.8156444 Z" id="形状"></path>
            <path d="M62.1839674,37.3380047 C62.1839674,44.1990278 67.7459256,49.760986 74.6069488,49.760986 C81.4679719,49.760986 87.0299301,44.1990278 87.0299301,37.3380047 C87.0299301,32.8997008 84.6621234,28.7985389 80.8184395,26.5793869 C76.9747557,24.3602349 72.2391418,24.3602349 68.395458,26.5793869 C64.5517741,28.7985389 62.1839674,32.8997008 62.1839674,37.3380047 L62.1839674,37.3380047 Z" id="路径"></path>
            <path d="M36.1212345,82.4777562 C38.9733924,80.8288927 42.3641353,80.3817905 45.5462133,81.2349817 C48.7282914,82.0881728 51.4405306,84.1716304 53.0852096,87.0262034 C56.5149655,92.9661733 54.4843279,100.561675 48.5479425,103.997632 C42.6030754,107.423801 35.006592,105.388567 31.5709239,99.4491848 C28.1455637,93.5055117 30.1818805,85.9106002 36.1212345,82.4777562 L36.1212345,82.4777562 Z" id="路径"></path>
            <path d="M94.4516693,55.971545 C94.4516693,62.8346264 100.015296,68.3982531 106.878377,68.3982531 C113.741459,68.3982531 119.305085,62.8346264 119.305085,55.971545 C119.305085,49.1084637 113.741459,43.544837 106.878377,43.544837 C100.015296,43.544837 94.4516693,49.1084637 94.4516693,55.971545 L94.4516693,55.971545 Z" id="路径"></path>
            <path d="M36.1212345,66.7305512 C33.2678598,65.0827953 31.1861065,62.3688222 30.3341138,59.1859061 C29.4821211,56.0029899 29.9297098,52.6119707 31.5783773,49.7591227 C33.7608917,45.8456575 37.8823025,43.4113334 42.3631598,43.3889032 C46.8440172,43.3667814 50.9894275,45.7600079 53.2107437,49.65158 C55.4320598,53.5431521 55.384799,58.3295627 53.087073,62.176514 C49.659048,68.1182814 42.0639123,70.1569976 36.1212345,66.7305512 L36.1212345,66.7305512 Z" id="路径"></path>
        </g>
    </g>
</svg>

<svg width="150" height="150" xmlns="http://www.w3.org/2000/svg"><g fill="#000" fill-rule="nonzero"><path d="M74.607.07C33.445.07.073 33.439.073 74.606c0 41.167 33.372 74.54 74.534 74.54a74.344 74.344 0 0 0 28.51-5.678 12.434 12.434 0 0 0 4.032-20.271l-8.745-8.745a12.425 12.425 0 0 1 8.782-21.207l29.534-.007a12.421 12.421 0 0 0 12.423-12.421v-6.21C149.141 33.435 115.774.07 74.607.07Zm62.111 80.746-29.534.005c-13.703 0-24.844 11.141-24.844 24.844 0 6.64 2.584 12.872 7.278 17.568l8.747 8.745a61.536 61.536 0 0 1-23.76 4.746c-34.246 0-62.111-27.867-62.111-62.119 0-34.252 27.866-62.113 62.113-62.113s62.111 27.859 62.111 62.111v6.213Z"/><path d="M62.184 37.338c0 6.861 5.562 12.423 12.423 12.423S87.03 44.199 87.03 37.338a12.423 12.423 0 1 0-24.846 0ZM36.121 82.478a12.41 12.41 0 0 1 16.964 4.548c3.43 5.94 1.4 13.536-4.537 16.972-5.945 3.426-13.541 1.39-16.977-4.549-3.425-5.943-1.39-13.538 4.55-16.971ZM94.452 55.972c0 6.863 5.563 12.426 12.426 12.426s12.427-5.563 12.427-12.426c0-6.864-5.564-12.427-12.427-12.427-6.863 0-12.426 5.563-12.426 12.427ZM36.121 66.73a12.421 12.421 0 0 1-4.543-16.97 12.42 12.42 0 1 1 21.51 12.417c-3.429 5.941-11.024 7.98-16.967 4.554Z"/></g></svg>
